src/data/flags/japan/niigata.svg

<svg height="400" width="600" xmlns="http://www.w3.org/2000/svg"><path d="m0 0h600v400h-600z" fill="#e20909"/><g fill="none" stroke="#ffda00" stroke-width="10"><path d="m250.58 106.26c-4 2.12-7.26 4.11-10.96 6.7zm-15.43 10.02a99.54 99.54 0 0 0 -9.62 8.5zm72.14 208.33a126.62 126.62 0 0 0 99.65-58.46c37.61-59.04 20.26-137.48-38.78-175.1l-11.58 19.37c49.02 31.23 63.48 96.38 32.25 145.4a105.23 105.23 0 0 1 -81.54 48.49"/><path d="m240.47 86c-20.26 10.77-35.08 24.48-47.4 43.83-37.62 59.04-20.27 137.49 38.77 175.1a126.24 126.24 0 0 0 60.87 19.68"/><path d="m292.71 304.3a104.76 104.76 0 0 1 -49.29-16.23c-49.02-31.23-63.48-96.38-32.25-145.4 2.26-3.55 4.34-6.44 6.98-9.7l-24.8-20.92m113.91 31.03c14.43 0 26.46-9.64 27.37-17.6.91-7.95-9.3-14.23-25.86-3.92v-36.43c.63-7.2 20.7-12.63 22.99-4.94 7.67 25.64-61.2 25.22-64.56 50.85-1.62 12.33 23.75 11.14 23.75-5.22v-37.34m-.41 14.87c-36.74 0-27.42-17.14-8.76-23.74m6.04-1.85c3.72-1.37 9.43-3.1 13-3.58m81.03 58.78 18.6-15.68"/></g></svg>

<svg xmlns="http://www.w3.org/2000/svg" width="600" height="400" version="1"><path fill="#e20909" d="M0 0h600v400H0z"/><g fill="none" stroke="#ffda00" stroke-width="10"><path d="M250.58 106.26c-4 2.12-7.26 4.11-10.96 6.7l10.96-6.7zM235.15 116.28a99.54 99.54 0 0 0-9.62 8.5l9.62-8.5zM307.29 324.61a126.62 126.62 0 0 0 99.65-58.46c37.61-59.04 20.26-137.48-38.78-175.1l-11.58 19.37c49.02 31.23 63.48 96.38 32.25 145.4a105.23 105.23 0 0 1-81.54 48.49"/><path d="M240.47 86c-20.26 10.77-35.08 24.48-47.4 43.83-37.62 59.04-20.27 137.49 38.77 175.1a126.24 126.24 0 0 0 60.87 19.68"/><path d="M292.71 304.3a104.76 104.76 0 0 1-49.29-16.23c-49.02-31.23-63.48-96.38-32.25-145.4 2.26-3.55 4.34-6.44 6.98-9.7l-24.8-20.92M307.26 143.08c14.43 0 26.46-9.64 27.37-17.6.91-7.95-9.3-14.23-25.86-3.92V85.13c.63-7.2 20.7-12.63 22.99-4.94 7.67 25.64-61.2 25.22-64.56 50.85-1.62 12.33 23.75 11.14 23.75-5.22V88.48M290.54 103.35c-36.74 0-27.42-17.14-8.76-23.74M287.82 77.76c3.72-1.37 9.43-3.1 13-3.58M381.85 132.96l18.6-15.68"/></g></svg>
